!!! OTL: Berkowitz196
!!! Chapter: 1
!!! Section: II
!!! Page: 46
!!! Mode: 
!!! Encoder: DJB
**kern
*staff1
*I"Piano
=1-
*clefC3
*k[b-e-a-]
*E-:
*M3/4
4r
4r
4B-/
=2
12e-\L
12f\
12g\J
4.B-/
8g\
=3
12f\L
12g\
12a-\J
4.B-/
8a-\
=4
12g\L
12a-\
12b-\J
12cc\L
12b-\
12a-\J
12g\L
12f\
12e-\J
=5
4f\
4b-\
8r
8B-/
=6
12a-\L
12g\
12f\J
4.a-\
8b-\
=7
!!linebreak:original
12g\L
12f\
12e-\J
4g\
12f\L
12g\
12a-\J
=8
4b-\
4B-/
12a-\L
12g\
12f\J
=9
2e-\
4r
==
*-
